img/icons/FrameSubject.svg

<svg width="24" height="24" viewBox="0 0 24 24" fill="none" xmlns="http://www.w3.org/2000/svg">
<path d="M6.45996 13.5599V6.53992C6.45996 5.22992 7.51996 4.16992 8.82996 4.16992H16.35C17.66 4.16992 18.72 5.22992 18.72 6.53992V17.3199C18.72 18.6299 17.66 19.6899 16.35 19.6899H14.61" stroke="#8C8D92" stroke-width="1.35" stroke-miterlimit="10" stroke-linecap="round"/>
<path d="M11.6797 7.84985H16.2097" stroke="#8C8D92" stroke-width="1.35" stroke-miterlimit="10" stroke-linecap="round"/>
<path d="M11.6797 10.6899H16.2097" stroke="#8C8D92" stroke-width="1.35" stroke-miterlimit="10" stroke-linecap="round"/>
<path d="M11.6797 13.54H16.2097" stroke="#8C8D92" stroke-width="1.35" stroke-miterlimit="10" stroke-linecap="round"/>
<path d="M8.87012 7.84985H9.32012" stroke="#8C8D92" stroke-width="1.35" stroke-miterlimit="10" stroke-linecap="round"/>
<path d="M8.87012 10.6899H9.32012" stroke="#8C8D92" stroke-width="1.35" stroke-miterlimit="10" stroke-linecap="round"/>
<path d="M8.87012 13.54H9.32012" stroke="#8C8D92" stroke-width="1.35" stroke-miterlimit="10" stroke-linecap="round"/>
<path d="M6.20996 19.8699H5.20996C4.37996 19.8699 3.70996 19.1999 3.70996 18.3699C3.70996 17.5399 4.37996 16.8699 5.20996 16.8699H6.20996C6.48996 16.8699 6.70996 16.6499 6.70996 16.3699C6.70996 16.0899 6.48996 15.8699 6.20996 15.8699H5.20996C3.82996 15.8699 2.70996 16.9899 2.70996 18.3699C2.70996 19.7499 3.82996 20.8699 5.20996 20.8699H6.20996C6.48996 20.8699 6.70996 20.6499 6.70996 20.3699C6.70996 20.0899 6.48996 19.8699 6.20996 19.8699Z" fill="#8B8C91" stroke="#8B8C91" stroke-width="0.35" stroke-miterlimit="10"/>
<path d="M10.21 15.8699H9.20996C8.92996 15.8699 8.70996 16.0899 8.70996 16.3699C8.70996 16.6499 8.92996 16.8699 9.20996 16.8699H10.21C11.04 16.8699 11.71 17.5399 11.71 18.3699C11.71 19.1999 11.04 19.8699 10.21 19.8699H9.20996C8.92996 19.8699 8.70996 20.0899 8.70996 20.3699C8.70996 20.6499 8.92996 20.8699 9.20996 20.8699H10.21C11.59 20.8699 12.71 19.7499 12.71 18.3699C12.71 16.9899 11.59 15.8699 10.21 15.8699Z" fill="#8B8C91" stroke="#8B8C91" stroke-width="0.35" stroke-miterlimit="10"/>
<path d="M5.20996 18.3699C5.20996 18.6499 5.42996 18.8699 5.70996 18.8699H9.70996C9.98996 18.8699 10.21 18.6499 10.21 18.3699C10.21 18.0899 9.98996 17.8699 9.70996 17.8699H5.70996C5.42996 17.8699 5.20996 18.0899 5.20996 18.3699Z" fill="#8B8C91" stroke="#8B8C91" stroke-width="0.35" stroke-miterlimit="10"/>
</svg>

<svg width="24" height="24" fill="none" xmlns="http://www.w3.org/2000/svg"><path d="M6.46 13.56V6.54c0-1.31 1.06-2.37 2.37-2.37h7.52c1.31 0 2.37 1.06 2.37 2.37v10.78c0 1.31-1.06 2.37-2.37 2.37h-1.74M11.68 7.85h4.53m-4.53 2.84h4.53m-4.53 2.85h4.53M8.87 7.85h.45m-.45 2.84h.45m-.45 2.85h.45" stroke="#8C8D92" stroke-width="1.35" stroke-miterlimit="10" stroke-linecap="round"/><path d="M6.21 19.87h-1c-.83 0-1.5-.67-1.5-1.5s.67-1.5 1.5-1.5h1c.28 0 .5-.22.5-.5s-.22-.5-.5-.5h-1a2.5 2.5 0 0 0 0 5h1c.28 0 .5-.22.5-.5s-.22-.5-.5-.5Zm4-4h-1c-.28 0-.5.22-.5.5s.22.5.5.5h1c.83 0 1.5.67 1.5 1.5s-.67 1.5-1.5 1.5h-1c-.28 0-.5.22-.5.5s.22.5.5.5h1a2.5 2.5 0 0 0 0-5Z" fill="#8B8C91" stroke="#8B8C91" stroke-width=".35" stroke-miterlimit="10"/><path d="M5.21 18.37c0 .28.22.5.5.5h4c.28 0 .5-.22.5-.5s-.22-.5-.5-.5h-4c-.28 0-.5.22-.5.5Z" fill="#8B8C91" stroke="#8B8C91" stroke-width=".35" stroke-miterlimit="10"/></svg>
